icons/package-dependents-16.svg

<svg width="16" height="16" viewBox="0 0 16 16" fill="none" xmlns="http://www.w3.org/2000/svg">
<g clip-path="url(#clip0_13_122)">
<path fill-rule="evenodd" clip-rule="evenodd" d="M6.12199 0.392201C6.66497 0.0772741 7.33503 0.0772742 7.87801 0.392201L13.128 3.4372C13.6678 3.75026 14 4.32703 14 4.95101V7.24998C14 7.66419 13.6642 7.99998 13.25 7.99998C12.8358 7.99998 12.5 7.66419 12.5 7.24998V5.67702L7.75 8.43202V14.5V14.816C7.75 15.5867 6.91495 16.0677 6.24828 15.681L0.871994 12.5628C0.332237 12.2497 0 11.6729 0 11.049V4.95101C0 4.32703 0.332236 3.75026 0.871993 3.4372L6.12199 0.392201ZM7.12543 1.68975L11.7552 4.37499L7.00001 7.13298L2.24485 4.37499L6.87457 1.68975C6.95214 1.64476 7.04786 1.64476 7.12543 1.68975ZM1.5 11.049V5.67702L6.25 8.43202V13.948L1.62457 11.2652C1.54746 11.2205 1.5 11.1381 1.5 11.049ZM12.3282 14.7331C12.0427 15.0332 12.0546 15.5079 12.3547 15.7934C12.6548 16.0789 13.1295 16.067 13.415 15.7669L15.7934 13.2669C16.0689 12.9774 16.0689 12.5226 15.7934 12.2331L13.415 9.73305C13.1295 9.43295 12.6548 9.42111 12.3547 9.70662C12.0546 9.99212 12.0427 10.4668 12.3282 10.7669L13.5013 12H10.25C9.83579 12 9.5 12.3358 9.5 12.75C9.5 13.1642 9.83579 13.5 10.25 13.5H13.5013L12.3282 14.7331Z" fill="#24292E"/>
</g>
<defs>
<clipPath id="clip0_13_122">
<rect width="16" height="16" fill="white"/>
</clipPath>
</defs>
</svg>

<svg xmlns="http://www.w3.org/2000/svg" width="16" height="16" viewBox="0 0 16 16"><path fill-rule="evenodd" d="M6.122.392a1.75 1.75 0 011.756 0l5.25 3.045c.54.313.872.89.872 1.514V7.25a.75.75 0 01-1.5 0V5.677L7.75 8.432v6.384a1 1 0 01-1.502.865L.872 12.563A1.75 1.75 0 010 11.049V4.951c0-.624.332-1.2.872-1.514L6.122.392zM7.125 1.69l4.63 2.685L7 7.133 2.245 4.375l4.63-2.685a.25.25 0 01.25 0zM1.5 11.049V5.677l4.75 2.755v5.516l-4.625-2.683a.25.25 0 01-.125-.216zm10.828 3.684a.75.75 0 101.087 1.034l2.378-2.5a.75.75 0 000-1.034l-2.378-2.5a.75.75 0 00-1.087 1.034L13.501 12H10.25a.75.75 0 000 1.5h3.251l-1.173 1.233z"/></svg>
